linjiashop-admin/src/icons/svg/category.svg

<?xml version="1.0" standalone="no"?><!DOCTYPE svg PUBLIC "-//W3C//DTD SVG 1.1//EN" "http://www.w3.org/Graphics/SVG/1.1/DTD/svg11.dtd"><svg t="1578487968441" class="icon" viewBox="0 0 1024 1024" version="1.1" xmlns="http://www.w3.org/2000/svg" p-id="5579" xmlns:xlink="http://www.w3.org/1999/xlink" width="48" height="48"><defs><style type="text/css"></style></defs><path d="M366.553536 16.452169 92.462812 16.452169c-50.531062 0-91.873497 41.343614-91.873497 91.873497l0 274.090527c0 50.531062 41.343614 91.873497 91.873497 91.873497l274.090527 0c50.531062 0 91.873497-41.343614 91.873497-91.873497L458.426836 108.326846C458.427033 57.795783 417.083418 16.452169 366.553536 16.452169zM366.553536 566.164563 92.462812 566.164563c-50.531062 0-91.873497 39.812275-91.873497 90.342354l0 275.621867c0 50.531062 41.343614 91.873693 91.873497 91.873693l274.090527 0c50.531062 0 91.873497-41.343614 91.873497-91.873693L458.426836 658.03806C458.427033 607.508178 417.083418 566.164563 366.553536 566.164563zM916.26593 16.452169 642.175206 16.452169c-50.531062 0-91.873497 41.343614-91.873497 91.873497l0 274.090527c0 50.531062 41.343614 91.873497 91.873497 91.873497l274.090527 0c50.531062 0 91.873497-41.343614 91.873497-91.873497L1008.139231 108.326846C1008.140607 57.795783 966.796993 16.452169 916.26593 16.452169zM916.26593 566.164563 642.175206 566.164563c-50.531062 0-91.873497 39.812275-91.873497 90.342354l0 275.621867c0 50.531062 41.343614 91.873693 91.873497 91.873693l274.090527 0c50.531062 0 91.873497-41.343614 91.873497-91.873693l0-274.089544C1008.140607 607.508178 966.796993 566.164563 916.26593 566.164563z" p-id="5580"></path></svg>

<svg class="icon" viewBox="0 0 1024 1024" xmlns="http://www.w3.org/2000/svg" width="48" height="48"><defs><style/></defs><path d="M366.554 16.452H92.463C41.932 16.452.589 57.796.589 108.326v274.09c0 50.531 41.344 91.874 91.874 91.874h274.09c50.531 0 91.874-41.344 91.874-91.874v-274.09c0-50.53-41.344-91.874-91.873-91.874zm0 549.713H92.463c-50.531 0-91.874 39.812-91.874 90.342v275.622c0 50.53 41.344 91.873 91.874 91.873h274.09c50.531 0 91.874-41.343 91.874-91.873v-274.09c0-50.53-41.344-91.874-91.873-91.874zM916.266 16.452h-274.09c-50.532 0-91.874 41.344-91.874 91.874v274.09c0 50.531 41.343 91.874 91.873 91.874h274.09c50.532 0 91.874-41.344 91.874-91.874v-274.09c.002-50.53-41.342-91.874-91.873-91.874zm0 549.713h-274.09c-50.532 0-91.874 39.812-91.874 90.342v275.622c0 50.53 41.343 91.873 91.873 91.873h274.09c50.532 0 91.874-41.343 91.874-91.873v-274.09c.002-50.53-41.342-91.874-91.873-91.874z"/></svg>
